X:66
T:Derry
Z: id:dc-reel-60
M:C
L:1/8
K:A Major
AB|c3B ABcA|BAcB AFEF|ABce a2ge|faec B2AB|!
c3B ABcA|BAcA BAFA|EAce faec|BAGB A2:|!
ag|f2fe cfaf|geBe gbag|f2fe cfaf|gfeg f2fg|!
aecB ABcA|BAcA BAFA|EAce faec|BAGB A2:|!

